static/assets/images/exchanges/story-hunt.svg

<svg width="227" height="256" viewBox="0 0 227 256" fill="none" xmlns="http://www.w3.org/2000/svg">
<path d="M196.85 89.0544C161.354 68.5253 186.805 25.7267 211.639 0L79.8826 136.492C74.1881 142.391 65.2163 143.652 58.1215 139.549C42.2646 130.379 36.8318 110.069 45.9867 94.1856L50.5075 86.3419C58.8142 71.9307 76.2769 66.1152 91.2866 72.0112L140.142 21.3995C132.944 28.8565 115.937 42.261 105.497 36.2231C76.6661 19.5501 39.8008 29.4446 23.1554 58.3232L8.08582 84.4677C-8.55957 113.347 1.31856 150.273 30.1492 166.946C65.6471 187.475 40.1949 230.274 15.3607 256L147.117 119.508C152.813 113.609 161.784 112.349 168.879 116.452C184.736 125.622 190.169 145.932 181.014 161.815L176.493 169.659C168.186 184.07 150.724 189.886 135.713 183.99L86.8582 234.601C94.0564 227.143 111.063 213.74 121.504 219.778C150.334 236.451 187.2 226.556 203.844 197.677L218.914 171.532C235.56 142.654 225.682 105.727 196.85 89.0544Z" fill="white"/>
</svg>

<svg xmlns="http://www.w3.org/2000/svg" fill="none" viewBox="0 0 227 256"><path fill="#fff" d="M196.85 89.054C161.354 68.525 186.805 25.727 211.639 0L79.883 136.492a17.83 17.83 0 0 1-21.761 3.057c-15.857-9.17-21.29-29.48-12.135-45.363l4.52-7.844c8.307-14.411 25.77-20.227 40.78-14.33L140.142 21.4c-7.198 7.457-24.205 20.861-34.645 14.823-28.83-16.673-65.696-6.778-82.342 22.1L8.085 84.468C-8.56 113.347 1.32 150.273 30.15 166.946 65.647 187.475 40.195 230.274 15.361 256l131.756-136.492a17.83 17.83 0 0 1 21.762-3.056c15.857 9.17 21.29 29.48 12.135 45.363l-4.521 7.844c-8.307 14.411-25.769 20.227-40.78 14.331l-48.855 50.611c7.198-7.458 24.205-20.861 34.646-14.823 28.83 16.673 65.696 6.778 82.34-22.101l15.07-26.145c16.646-28.878 6.768-65.805-22.064-82.478"/></svg>
